newicons/chaton_ai.svg

<?xml version="1.0" encoding="UTF-8" standalone="no"?>
<svg
   viewBox="0 0 48 48"
   version="1.1"
   id="svg1"
   sodipodi:docname="chaton_ai.svg"
   inkscape:version="1.3.2 (091e20ef0f, 2023-11-25)"
   xml:space="preserve"
   xmlns:inkscape="http://www.inkscape.org/namespaces/inkscape"
   xmlns:sodipodi="http://sodipodi.sourceforge.net/DTD/sodipodi-0.dtd"
   xmlns="http://www.w3.org/2000/svg"
   xmlns:svg="http://www.w3.org/2000/svg"><sodipodi:namedview
     id="namedview1"
     pagecolor="#505050"
     bordercolor="#eeeeee"
     borderopacity="1"
     inkscape:showpageshadow="0"
     inkscape:pageopacity="0"
     inkscape:pagecheckerboard="0"
     inkscape:deskcolor="#505050"
     inkscape:zoom="17.8125"
     inkscape:cx="14.680702"
     inkscape:cy="22.708772"
     inkscape:window-width="1918"
     inkscape:window-height="1053"
     inkscape:window-x="0"
     inkscape:window-y="0"
     inkscape:window-maximized="1"
     inkscape:current-layer="svg1"
     showguides="true" /><defs
     id="defs1"><style
       id="style1">.a { fill:none;stroke:#fff;stroke-linecap:round;stroke-linejoin:round; }
</style></defs><path
     style="display:inline;fill:none;stroke:#ffffff;stroke-width:1;stroke-linecap:round;stroke-linejoin:round;stroke-opacity:1"
     d="M 40.02737,14.749999 C 39.239017,13.385035 33.693534,10.368738 32.328065,9.5806762 30.962597,8.7926122 25.576706,5.4999986 23.999999,5.4999998 c -1.576707,0 -6.962599,3.2926144 -8.328068,4.0806774 C 14.306464,10.368739 8.7609812,13.385035 7.9726272,14.749999 7.1842743,16.114965 7.3438659,22.423875 7.3438659,24 c 0,1.576126 -0.1595915,7.885035 0.6287613,9.25 0.788355,1.364966 6.3338378,4.38126 7.6993058,5.169324 C 17.037402,39.207387 22.423292,42.5 24,42.5 c 1.576706,0 6.962598,-3.292614 8.328068,-4.080676 1.365467,-0.788064 6.91095,-3.804358 7.699303,-5.169324 0.788354,-1.364966 0.628763,-7.673875 0.628763,-9.250001 0,-1.576127 0.159591,-7.885034 -0.628764,-9.25 z"
     id="path46" /><path
     id="path47"
     style="display:inline;fill:none;stroke:#ffffff;stroke-width:1;stroke-linecap:round;stroke-linejoin:round;stroke-opacity:1"
     d="M 19.298534 7.4957959 L 29.668994 13.481091 L 29.668447 27.339194 " /><path
     id="path44"
     style="display:inline;fill:none;stroke:#ffffff;stroke-width:1;stroke-linecap:round;stroke-linejoin:round;stroke-opacity:1"
     d="M 23.674785 16.960101 L 11.654744 23.897321 L 11.655423 36.081399 " /><path
     style="display:inline;fill:none;stroke:#ffffff;stroke-width:1;stroke-linecap:round;stroke-linejoin:round;stroke-opacity:1"
     d="m 7.3612711,19.44463 10.3161109,-5.954239 5.995845,3.465451 -0.0091,6.93008"
     id="path43" /><path
     id="path42"
     style="display:inline;fill:none;stroke:#ffffff;stroke-width:1;stroke-linecap:round;stroke-linejoin:round;stroke-opacity:1"
     d="M 17.676866 27.350912 L 29.686162 34.281085 L 40.651072 27.953885 " /><path
     style="display:inline;fill:none;stroke:#ffffff;stroke-width:1;stroke-linecap:round;stroke-linejoin:round;stroke-opacity:1"
     d="m 23.682073,23.885922 -6.013753,3.46499 -0.0087,6.920152 10.918256,6.300381"
     id="path41" /><path
     style="display:inline;fill:none;stroke:#ffffff;stroke-width:1;stroke-linecap:round;stroke-linejoin:round;stroke-opacity:1"
     d="m 35.672777,11.514282 -3.89e-4,12.382527 -5.985591,3.454103 -6.004724,-3.46499"
     id="path19" /></svg>

<?xml version="1.0" encoding="UTF-8"?><svg id="a" xmlns="http://www.w3.org/2000/svg" viewBox="0 0 48 48"><defs><style>.i{fill:none;stroke:#fff;stroke-linecap:round;stroke-linejoin:round;}</style></defs><path id="b" class="i" d="M40.0274,14.75c-.7884-1.365-6.3338-4.3813-7.6993-5.1693-1.3655-.7881-6.7514-4.0807-8.3281-4.0807-1.5767,0-6.9626,3.2926-8.3281,4.0807-1.3655.7881-6.9109,3.8044-7.6993,5.1693-.7884,1.365-.6288,7.6739-.6288,9.25s-.1596,7.885.6288,9.25c.7884,1.365,6.3338,4.3813,7.6993,5.1693s6.7514,4.0807,8.3281,4.0807,6.9626-3.2926,8.3281-4.0807c1.3655-.7881,6.9109-3.8044,7.6993-5.1693.7884-1.365.6288-7.6739.6288-9.25s.1596-7.885-.6288-9.25Z"/><path id="c" class="i" d="M19.2985,7.4958l10.3705,5.9853-.0005,13.8581"/><path id="d" class="i" d="M23.6748,16.9601l-12.02,6.9372.0007,12.1841"/><path id="e" class="i" d="M7.3613,19.4446l10.3161-5.9542,5.9958,3.4655-.0091,6.9301"/><path id="f" class="i" d="M17.6769,27.3509l12.0093,6.9302,10.9649-6.3272"/><path id="g" class="i" d="M23.6821,23.8859l-6.0138,3.465-.0087,6.9202,10.9183,6.3004"/><path id="h" class="i" d="M35.6728,11.5143l-.0004,12.3825-5.9856,3.4541-6.0047-3.465"/></svg>
